packages/forma-36-website/static/icons/tokens.svg

<svg height="52" viewBox="0 0 52 52" width="52" xmlns="http://www.w3.org/2000/svg"><g fill="none" fill-rule="evenodd" opacity=".12" stroke="#000" stroke-width="2"><circle cx="26" cy="26" r="25"/><circle cx="26" cy="26" r="21"/><g fill-rule="nonzero" transform="translate(14.5 14)"><path d="m7.15137346 16.6520376c-1.16189363-1.2037617-1.89830508-2.8756531-1.88194038-4.6980146 0-1.8390805.73641145-3.49425289 1.91466977-4.68129573.99824664-1.01985371 1.01461137-2.6583072.01636473-3.67816092-.99824664-1.01985371-2.60198717-1.03657262-3.6165985-.01671891-2.09468147 2.12330198-3.40385739 5.08254965-3.42022209 8.35945666-.0163647 3.276907 1.27644652 6.2361546 3.37112799 8.3928944.99824665 1.0198538 2.60198714 1.0365727 3.61659848.016719.98188194-1.0198538.99824664-2.6750262 0-3.6948799z"/><path d="m7.18410285 7.27272727c1.17825835-1.18704283 2.81472823-1.93939392 4.59848045-1.92267502 1.8001169 0 3.4202221.7523511 4.5821157 1.95611284.9982466 1.01985371 2.6019871 1.03657262 3.6002338.01671891.9982466-1.01985371 1.0146113-2.6583072.0163647-3.69487982-2.0946815-2.15673981-4.9912332-3.49425287-8.1823495-3.51097179-3.19111634 0-6.10403275 1.30407524-8.19871423 3.44409614-.99824663 1.01985369-1.01461133 2.65830722-.01636469 3.69487983.98188194 1.01985371 2.60198713 1.01985371 3.60023377.01671891z"/><path d="m16.3483343 16.6854755c-1.1782583 1.1870428-2.8147282 1.9393939-4.5984804 1.922675-1.8001169 0-3.42022209-.7523511-4.58211575-1.9561129-.99824664-1.0198537-2.60198713-1.0365726-3.60023377-.0167189s-1.01461134 2.6583072-.0163647 3.6948798c2.09468149 2.1567399 4.9912332 3.4942529 8.18234952 3.5109718 3.207481.0167189 6.1040327-1.3040752 8.2150789-3.4440961.9982466-1.0198537 1.0146113-2.6583072.0163647-3.6948798-1.0146114-1.0198537-2.6183518-1.0365727-3.6165985-.0167189z"/></g></g></svg>

<?xml version="1.0" encoding="UTF-8"?>
<svg width="52px" height="52px" viewBox="0 0 52 52" version="1.1"
    xmlns="http://www.w3.org/2000/svg"
    xmlns:xlink="http://www.w3.org/1999/xlink">
    <g id="Page-1" stroke="none" stroke-width="1" fill="none" fill-rule="evenodd" opacity="0.12">
        <g id="Artboard" transform="translate(-454.000000, -795.000000)" stroke="#000000" stroke-width="2">
            <g id="Group-2" transform="translate(455.000000, 796.000000)">
                <circle id="Oval" cx="25" cy="25" r="25"></circle>
                <circle id="Oval" cx="25" cy="25" r="21"></circle>
                <g id="contentful-logo" transform="translate(13.000000, 13.000000)" fill-rule="nonzero">
                    <g id="Group" transform="translate(0.500000, 0.000000)">
                        <path d="M7.15137346,16.6520376 C5.98947983,15.4482759 5.25306838,13.7763845 5.26943308,11.954023 C5.26943308,10.1149425 6.00584453,8.45977011 7.18410285,7.27272727 C8.18234949,6.25287356 8.19871422,4.61442007 7.20046758,3.59456635 C6.20222094,2.57471264 4.59848041,2.55799373 3.58386908,3.57784744 C1.48918761,5.70114942 0.180011689,8.66039709 0.16364699,11.9373041 C0.147282291,15.2142111 1.44009351,18.1734587 3.53477498,20.3301985 C4.53302163,21.3500523 6.13676212,21.3667712 7.15137346,20.3469175 C8.1332554,19.3270637 8.1496201,17.6718913 7.15137346,16.6520376 Z" id="Path"></path>
                        <path d="M7.18410285,7.27272727 C8.3623612,6.08568444 9.99883108,5.33333335 11.7825833,5.35005225 C13.5827002,5.35005225 15.2028054,6.10240335 16.364699,7.30616509 C17.3629456,8.3260188 18.9666861,8.34273771 19.9649328,7.322884 C20.9631794,6.30303029 20.9795441,4.6645768 19.9812975,3.62800418 C17.886616,1.47126437 14.9900643,0.133751306 11.798948,0.117032393 C8.60783166,0.117032393 5.69491525,1.42110763 3.60023377,3.56112853 C2.60198714,4.58098222 2.58562244,6.21943575 3.58386908,7.25600836 C4.56575102,8.27586207 6.18585621,8.27586207 7.18410285,7.27272727 Z" id="Path"></path>
                        <path d="M16.3483343,16.6854755 C15.170076,17.8725183 13.5336061,18.6248694 11.7498539,18.6081505 C9.949737,18.6081505 8.32963181,17.8557994 7.16773815,16.6520376 C6.16949151,15.6321839 4.56575102,15.615465 3.56750438,16.6353187 C2.56925774,17.6551724 2.55289304,19.2936259 3.55113968,20.3301985 C5.64582117,22.4869384 8.54237288,23.8244514 11.7334892,23.8411703 C14.9409702,23.8578892 17.8375219,22.5370951 19.9485681,20.3970742 C20.9468147,19.3772205 20.9631794,17.738767 19.9649328,16.7021944 C18.9503214,15.6823407 17.346581,15.6656217 16.3483343,16.6854755 Z" id="Path"></path>
                    </g>
                </g>
            </g>
        </g>
    </g>
</svg>
